!!!COM: Robert Franz
!!!CNT: Deutscher
!!!TXO: Deutsche 
!!!OTL: "Im Rhein, im heiligen Strome"
!!!OPS: Op. 18
!!!ONM: No. 2
!!!ONB: Original key: Original key
!!!LYR: H. Heine
!!!ENC: Brian Bice
!!!YOR: Vocal Album, G. Schirmer, Inc., 1907
!!!ODT: 1860/
!!NB: Vocal melody and text only encoded.
**kern	**silbe
*clefG2	*
*k[f#c#]	*
*M6/8	*
=0	=0
4.r	.
4r	.
{8a	{Im
=1	=1
4a	Rhine,
8a	im
8.f#	hei-
16g	-li-
8a	-gen
=2	=2
4.b	Stro-
4f#	-me,
8f#	da
=3	=3
8.e	spie-
16e	-gelt
8e	sich
4g	in
8b	den
=4	=4
[4.a	Well'n
8a]}	|}
8r	.
{8a	{mit
=5	=5
4a	sei-
8a	-nem
(8f#	gro
8g)	|
8a	-ssen
=6	=6
4.b	Do-
4f#	-me
8f#	das
=7	=7
4g#	gro-
8g#	-sse,
8.a	hei-
16a	-li-
8a	-ge
=8	=8
[4.b	Co2ln,
8b]}	|}
8r	.
{8e	{das
=9	=9
4cc#	gro-
8a	-sse,
8b	hei-
8f#	-li-
8g#	-ge
=10	=10
[4.a	Co2ln.
8a]}	|}
8r	.
{8a	{Im
=11	=11
4e	Dom,
8e	da
4gn	steht
8gn	ein
=12	=12
4.ccn	Bild-
4b	-niss,
8b	auf
=13	=13
8a	gol-
8e	-de-
8g	-nem
8.f#	Grun-
16e	-de
8d	ge-
=14	=14
[4.g	-malt;
8g]}	|}
8r	.
{8b	{in
=15	=15
4b	mei-
8a	-nes
(8g#	Le-
8b)	|
8dd	-bens
=16	=16
(4cc#	Wild
8b)	|
4a#	-niss
8ee	hat's
=17	=17
8.dd	freund-
16cc#	-lich
8b	hin-
4cc#	-ein
8dd	ge-
=18	=18
(4.ee	-strahlt,
4an)}	|}
{8g	{hat's
=19	=19
8.f#	freund-
16g	-lich
8a	hin-
(8e	-ein
8g)	|
8b	ge
=20	=20
[4.a	strahlt.
8a]}	|}
8r	.
{8a	{Es
=21	=21
4a	schwe-
8a	-ben
8.f#	Blu-
16g	-men
8a	und
=22	=22
4.b	Eng-
4f#	-lein
8f#	um
=23	=23
4e	uns'-
8d	-re
(8c#	lie-
8e)	|
8g	-be
=24	=24
[4.f#	Frau;
8f#]}	|}
8r	.
{8a	{die
=25	=25
8.a	Au-
16a	-gen,
8a	die
8.ccn	Lip-
16ccn	-pen,
8ccn	die
=26	=26
4.ee	Wa2ng-
4dd}	lein,}
8r	.
=27	=27
4r	.
{8b	{die
8.f#	glei-
16f#	-chen
8f#	der
=28	=28
4.a	Lieb-
4a	-sten
8a	ge-
=29	=29
[4.f#	-nau.
8f#]}	|}
8r	.
*-	*-
